symbols/web/10k/materialsymbolsoutlined/10k_wght600fill1_40px.svg

<svg xmlns="http://www.w3.org/2000/svg" height="40" width="40"><path d="M11.417 25h2.208V15H8v2.208h3.417Zm5.125 0h4.291q.625 0 1.042-.417.417-.416.417-1.041V16.5q0-.625-.417-1.062Q21.458 15 20.833 15h-4.291q-.625 0-1.042.438-.417.437-.417 1.062v7.042q0 .625.417 1.041.417.417 1.042.417Zm.75-2.208v-5.584h2.791v5.584ZM23.667 25h2.208v-3.75L29.167 25H32l-4.375-5L32 15h-2.833l-3.292 3.75V15h-2.208ZM8 35.667q-1.5 0-2.583-1.084Q4.333 33.5 4.333 32V8q0-1.5 1.084-2.583Q6.5 4.333 8 4.333h24q1.5 0 2.583 1.084Q35.667 6.5 35.667 8v24q0 1.5-1.084 2.583Q33.5 35.667 32 35.667Z"/></svg>

<svg xmlns="http://www.w3.org/2000/svg" height="40" width="40"><path d="M23.667 25H25.875V21.25L29.167 25H32L27.625 20L32 15H29.167L25.875 18.75V15H23.667ZM11.417 25H13.625V15H8V17.208H11.417ZM16.542 25H20.833Q21.458 25 21.875 24.583Q22.292 24.167 22.292 23.542V16.5Q22.292 15.875 21.875 15.438Q21.458 15 20.833 15H16.542Q15.917 15 15.5 15.438Q15.083 15.875 15.083 16.5V23.542Q15.083 24.167 15.5 24.583Q15.917 25 16.542 25ZM17.292 22.792V17.208H20.083V22.792ZM8 35.667Q6.5 35.667 5.417 34.583Q4.333 33.5 4.333 32V8Q4.333 6.5 5.417 5.417Q6.5 4.333 8 4.333H32Q33.5 4.333 34.583 5.417Q35.667 6.5 35.667 8V32Q35.667 33.5 34.583 34.583Q33.5 35.667 32 35.667Z"/></svg>
